categories/64/applications-internet.svg

<?xml version="1.0" encoding="UTF-8" standalone="no"?>
<!-- Created with Inkscape (http://www.inkscape.org/) -->

<svg
   xmlns:dc="http://purl.org/dc/elements/1.1/"
   xmlns:cc="http://creativecommons.org/ns#"
   xmlns:rdf="http://www.w3.org/1999/02/22-rdf-syntax-ns#"
   xmlns:svg="http://www.w3.org/2000/svg"
   xmlns="http://www.w3.org/2000/svg"
   xmlns:xlink="http://www.w3.org/1999/xlink"
   xmlns:inkscape="http://www.inkscape.org/namespaces/inkscape"
   version="1.0"
   width="64"
   height="64"
   id="svg3278">
  <metadata
     id="metadata30">
    <rdf:RDF>
      <cc:Work
         rdf:about="">
        <dc:format>image/svg+xml</dc:format>
        <dc:type
           rdf:resource="http://purl.org/dc/dcmitype/StillImage" />
      </cc:Work>
    </rdf:RDF>
  </metadata>
  <defs
     id="defs3280">
    <linearGradient
       id="linearGradient8838">
      <stop
         id="stop8840"
         style="stop-color:#000000;stop-opacity:1"
         offset="0" />
      <stop
         id="stop8842"
         style="stop-color:#000000;stop-opacity:0"
         offset="1" />
    </linearGradient>
    <radialGradient
       cx="62.625"
       cy="4.625"
       r="10.625"
       fx="62.625"
       fy="4.625"
       id="radialGradient2506"
       xlink:href="#linearGradient8838"
       gradientUnits="userSpaceOnUse"
       gradientTransform="matrix(2.9176471,0,0,0.988234,-150.71765,48.92941)" />
    <linearGradient
       id="linearGradient3707-319-631">
      <stop
         id="stop4637"
         style="stop-color:#254b6d;stop-opacity:1"
         offset="0" />
      <stop
         id="stop4639"
         style="stop-color:#415b73;stop-opacity:1"
         offset="0.5" />
      <stop
         id="stop4641"
         style="stop-color:#6195b5;stop-opacity:1"
         offset="1" />
    </linearGradient>
    <linearGradient
       x1="20"
       y1="43"
       x2="20"
       y2="2.6887112"
       id="linearGradient2482"
       xlink:href="#linearGradient3707-319-631"
       gradientUnits="userSpaceOnUse"
       gradientTransform="matrix(1.2815568,0,0,1.2815276,0.732995,3.7535506)" />
    <linearGradient
       id="linearGradient2867-449-88-871-390-598-476-591-434-148">
      <stop
         id="stop4627"
         style="stop-color:#51cfee;stop-opacity:1"
         offset="0" />
      <stop
         id="stop4629"
         style="stop-color:#49a3d2;stop-opacity:1"
         offset="0.26238" />
      <stop
         id="stop4631"
         style="stop-color:#3470b4;stop-opacity:1"
         offset="0.704952" />
      <stop
         id="stop4633"
         style="stop-color:#273567;stop-opacity:1"
         offset="1" />
    </linearGradient>
    <radialGradient
       cx="61.240059"
       cy="-8.7256308"
       r="9.7552834"
       fx="61.240059"
       fy="-8.7256308"
       id="radialGradient2480"
       xlink:href="#linearGradient2867-449-88-871-390-598-476-591-434-148"
       gradientUnits="userSpaceOnUse"
       gradientTransform="matrix(0,4.6075349,-4.6075326,0,-8.203654,-266.50589)" />
    <linearGradient
       id="linearGradient4873">
      <stop
         id="stop4875"
         style="stop-color:#ffffff;stop-opacity:1"
         offset="0" />
      <stop
         id="stop4877"
         style="stop-color:#ffffff;stop-opacity:0"
         offset="1" />
    </linearGradient>
    <linearGradient
       x1="63.397362"
       y1="-12.489107"
       x2="63.397362"
       y2="5.4675598"
       id="linearGradient2498"
       xlink:href="#linearGradient4873"
       gradientUnits="userSpaceOnUse"
       gradientTransform="matrix(2.8014404,0,0,2.8013767,-142.25072,43.835172)" />
  </defs>
  <g
     id="layer1">
    <path
       d="m 63,53.499998 c 0,5.79899 -13.879175,10.5 -31,10.5 -17.120825,0 -31,-4.70101 -31,-10.5 0,-5.79899 13.879175,-10.5 31,-10.5 17.120825,0 31,4.70101 31,10.5 l 0,0 z"
       inkscape:connector-curvature="0"
       id="path8836"
       style="opacity:0.3;fill:url(#radialGradient2506);fill-opacity:1;fill-rule:evenodd;stroke:none;stroke-width:0.99999988;marker:none;visibility:visible;display:inline;overflow:visible" />
    <path
       d="M 57.499999,33.999097 C 57.499999,48.082811 46.082419,59.5 32.00032,59.5 17.916933,59.5 6.5,48.082681 6.5,33.999097 6.5,19.916029 17.916933,8.5000003 32.00032,8.5000003 c 14.082099,0 25.499679,11.4160287 25.499679,25.4990967 l 0,0 z"
       inkscape:connector-curvature="0"
       id="path6495"
       style="fill:url(#radialGradient2480);fill-opacity:1;fill-rule:nonzero;stroke:url(#linearGradient2482);stroke-width:1;stroke-miterlimit:4;stroke-dasharray:none" />
    <path
       d="m 56.499998,33.999131 c 0,13.531412 -10.96983,24.500867 -24.499689,24.500867 -13.531098,0 -24.5003092,-10.969579 -24.5003092,-24.500867 0,-13.530787 10.9692112,-24.4991303 24.5003092,-24.4991303 13.529859,0 24.499689,10.9683433 24.499689,24.4991303 l 0,0 z"
       inkscape:connector-curvature="0"
       id="path8655"
       style="opacity:0.4;fill:none;stroke:url(#linearGradient2498);stroke-width:0.99999994;stroke-miterlimit:4;stroke-opacity:1;stroke-dasharray:none" />
    <path
       d="m 32.577265,9.0000006 -3.108347,0.3563354 -3.419186,0.935382 c 0.291255,-0.102262 0.58631,-0.213885 0.888101,-0.3117939 l -0.399646,-0.7126715 -1.332149,0.2227095 -0.666075,0.6235879 -1.021315,0.133626 -0.932503,0.44542 -0.444049,0.22271 -0.133217,0.178167 -0.666073,0.133626 -0.399643,0.846298 -0.532863,-1.069007 -0.177617,0.445419 0.08882,1.202634 -0.843695,0.712671 -0.488454,1.291718 1.021316,0 0.399642,-0.846296 0.133217,-0.311795 c 0.449063,-0.318547 0.874776,-0.673303 1.332149,-0.979925 l 1.065718,0.356337 c 0.693862,0.472862 1.3926,0.953199 2.087035,1.425344 l 1.021305,-0.935383 -1.154529,-0.489961 -0.532859,-1.069008 -1.953819,-0.222711 -0.04441,-0.222708 0.843693,0.178167 0.488457,-0.489962 1.065719,-0.22271 c 0.252201,-0.123035 0.500291,-0.211652 0.754882,-0.311793 l -0.666074,0.623588 2.397869,1.648052 0,0.979924 -0.932504,0.935382 1.243338,2.494353 0.843695,-0.489965 1.065722,-1.648052 c 1.498322,-0.464667 2.848704,-1.005369 4.26288,-1.648054 l -0.08882,0.623588 0.710477,0.489962 1.243341,-0.846298 -0.621671,-0.712672 -0.843696,0.489963 -0.266429,-0.08908 c 0.0612,-0.02805 0.116158,-0.06057 0.177618,-0.08908 L 35.285967,10.069007 32.577265,9.0000006 z M 20.4103,13.810536 l 1.021314,0.71267 0.843696,0 0,-0.846298 -1.021313,-0.44542 -0.843697,0.579048 0,0 z m 23.57904,-0.579048 -1.820602,0.44542 -1.154527,0.757214 0,0.668129 -1.820604,1.158091 0.35524,1.737141 1.065719,-0.757217 0.666073,0.757217 0.754888,0.44542 0.488453,-1.29172 -0.26643,-0.757213 0.26643,-0.534506 1.06572,-0.979923 0.488454,0 -0.488454,1.069012 0,0.97992 c 0.439258,-0.119935 0.882631,-0.166646 1.332149,-0.222711 l -1.24334,0.890844 -0.08881,0.5345 -1.42096,1.202637 -1.465365,-0.356339 0,-0.846298 -0.666074,0.445421 0.310836,0.757216 -1.065721,0 -0.577264,0.979923 -0.71048,0.801755 -1.287744,0.267251 0.754885,0.757214 0.17762,0.757213 -0.932505,0 -1.243339,0.668131 0,1.959845 0.577264,0 0.532859,0.579047 1.198935,-0.579047 0.44405,-1.202633 0.8881,-0.534503 0.177619,-0.445421 1.420959,-0.356335 0.79929,0.890838 0.843696,0.445421 -0.488457,0.979926 0.754888,-0.222713 0.399641,-0.979924 -0.976907,-1.113548 0.399643,0 0.97691,0.801756 0.177621,1.069008 0.843693,0.979924 0.222024,-1.425343 0.444051,-0.222711 c 0.472664,0.492194 0.84524,1.094119 1.243339,1.648054 l 1.465365,0.08909 0.843693,0.534503 -0.399644,0.579047 -0.843695,0.757214 -1.24334,0 -1.642983,-0.534503 -0.843695,0.08909 -0.621669,0.712675 -1.7762,-1.781681 -1.243338,-0.356336 -1.820604,0.222711 -1.598579,0.445418 c -0.911925,1.037031 -1.845574,2.085482 -2.708705,3.162483 l -1.021313,2.494349 0.488455,0.534505 -0.888101,1.291717 0.97691,2.271641 c 0.812894,0.92239 1.630563,1.838555 2.442274,2.761602 l 1.198934,-1.024466 0.488455,0.62359 1.287746,-0.846297 0.444049,0.489961 1.287743,0 0.754886,0.846297 -0.44405,1.514428 0.888098,1.024466 -0.04441,1.781678 0.666073,1.291718 -0.488454,1.113549 c -0.04762,0.798649 -0.08882,1.561949 -0.08882,2.360725 0.391786,1.082146 0.784579,2.161635 1.15453,3.251564 l 0.26643,1.737136 0,0.890841 0.710477,0 1.021316,-0.668129 1.243341,0 1.865008,-2.093473 -0.222025,-0.712674 1.243341,-1.113548 -0.932507,-1.024465 1.110124,-0.890838 1.065721,-0.668133 0.488454,-0.534503 -0.310834,-1.202633 c 0,-1.012491 2e-6,-2.016228 0,-3.028856 l 0.843696,-1.870761 1.065717,-1.158092 1.15453,-2.850687 0,-0.757213 c -0.574531,0.0726 -1.125221,0.13805 -1.687389,0.178169 l 1.154529,-1.158093 1.598578,-1.069006 0.843696,-0.979927 0,-1.069006 c -0.191358,-0.361986 -0.384603,-0.75156 -0.577269,-1.113546 l -0.754885,0.890838 -0.577264,-0.668128 -0.843696,-0.668131 0,-1.380802 0.976911,1.113551 1.110126,-0.133626 c 0.500809,0.456049 0.981696,0.861561 1.420957,1.380801 L 57,30.112899 c 0,-0.863155 -0.969175,-5.124305 -3.063942,-8.730227 -2.094769,-3.604733 -5.772649,-6.904007 -5.772646,-6.904007 l -0.266432,0.489961 -0.976909,1.069009 -1.243339,-1.291719 1.243339,0 0.577266,-0.623588 -2.30906,-0.44542 -1.198937,-0.44542 z m -26.687389,0.579048 -0.444049,1.15809 c 0,0 -0.777422,0.128745 -0.976908,0.178169 C 13.333358,17.501679 8.1959014,22.609524 7,32.206374 c 0.047351,0.222504 0.843694,1.514425 0.843694,1.514425 l 1.9538185,1.158094 1.9538205,0.534502 0.843694,1.024466 1.287744,0.979923 0.754884,-0.133626 0.53286,0.267254 0,0.178165 -0.71048,2.004392 -0.577264,0.846299 0.17762,0.400875 -0.44405,1.603513 1.642984,3.028854 1.68739,1.469886 0.754882,1.069006 -0.08882,2.227099 0.53286,1.247174 -0.53286,2.40527 c 0,0 -0.07111,-0.01978 0,0.222711 0.07174,0.242603 2.968328,1.874632 3.152751,1.737136 0.18379,-0.14006 0.35524,-0.267253 0.35524,-0.267253 l -0.177618,-0.534504 0.754885,-0.71267 0.266428,-0.757215 1.198936,-0.40088 0.932503,-2.316181 -0.26643,-0.623588 0.621669,-0.979923 1.42096,-0.311794 0.71048,-1.692595 -0.177621,-2.093474 1.110126,-1.558967 0.177618,-1.603511 c -1.523144,-0.757651 -3.017521,-1.536129 -4.529305,-2.316185 l -0.754886,-1.469884 -1.376553,-0.311794 -0.754885,-2.004391 -1.820603,0.22271 -1.598581,-1.15809 -1.687388,1.469885 0,0.222711 c -0.505409,-0.146333 -1.104139,-0.167865 -1.554165,-0.44542 l -0.355239,-1.069009 0,-1.158092 -1.154529,0.133626 c 0.09291,-0.737676 0.217278,-1.48955 0.310833,-2.227098 l -0.666075,0 -0.666075,0.846297 -0.621671,0.311793 -0.9325031,-0.534502 -0.088811,-1.158093 0.1776201,-1.247175 1.3765545,-1.069007 1.110124,0 0.222025,-0.623588 1.376555,0.311792 1.021314,1.291719 0.17762,-2.138017 1.776198,-1.469883 0.621669,-1.558969 1.332151,-0.534503 0.710479,-1.06901 1.687389,-0.311794 0.843695,-1.247175 c -0.835088,0 -1.695996,0 -2.531084,0 l 1.59858,-0.757214 1.110123,0 1.42096,-0.489961 0.26643,1.380801 0.62167,-0.979924 -0.710482,-0.489961 0.177621,-0.579045 -0.577264,-0.534506 -0.621671,-0.178167 0.177621,-0.668129 -0.488456,-0.935379 -1.110124,0.445417 0.177621,-0.846296 -1.287745,-0.757216 -1.021313,1.78168 0.08882,0.623587 -1.021313,0.445421 -0.62167,1.380801 -0.310835,-1.291719 -1.731794,-0.71267 -0.310835,-0.979923 2.353464,-1.33626 1.021313,-0.979923 0.08882,-1.158094 -0.577265,-0.311793 -0.754885,-0.08908 -1.5e-5,-10e-7 z m 19.049736,2.138017 0,0.712667 0.399645,0.445421 0,1.069008 -0.222026,1.425343 1.15453,-0.222711 0.843696,-0.846296 -0.754885,-0.712673 C 37.527845,17.16541 37.279751,16.575731 36.973358,15.948553 l -0.621671,0 z m -0.976911,1.425339 -0.710477,0.222714 0.177618,1.291715 0.932504,-0.489965 -0.399645,-1.024464 0,0 z m 13.010659,11.714542 1.065718,1.247175 1.287745,2.761604 0.799289,0.890837 -0.399643,0.935385 0.71048,0.846299 c -0.326043,0.02165 -0.641795,0.04454 -0.97691,0.04454 -0.608779,-1.283192 -1.090582,-2.57727 -1.554174,-3.919694 l -0.79929,-0.890839 -0.444051,-1.603512 0.310836,-0.311795 0,-5e-6 z"
       inkscape:connector-curvature="0"
       id="path6534"
       style="opacity:0.4;fill:#000000;fill-opacity:1;fill-rule:nonzero;stroke:none" />
  </g>
</svg>

<?xml version="1.0" encoding="UTF-8" standalone="no"?>
<!-- Created with Inkscape (http://www.inkscape.org/) -->
<svg
   xmlns:svg="http://www.w3.org/2000/svg"
   xmlns="http://www.w3.org/2000/svg"
   xmlns:xlink="http://www.w3.org/1999/xlink"
   version="1.0"
   width="64"
   height="64"
   id="svg3278">
  <defs
     id="defs3280">
    <linearGradient
       id="linearGradient8838">
      <stop
         id="stop8840"
         style="stop-color:#000000;stop-opacity:1"
         offset="0" />
      <stop
         id="stop8842"
         style="stop-color:#000000;stop-opacity:0"
         offset="1" />
    </linearGradient>
    <radialGradient
       cx="62.625"
       cy="4.625"
       r="10.625"
       fx="62.625"
       fy="4.625"
       id="radialGradient2506"
       xlink:href="#linearGradient8838"
       gradientUnits="userSpaceOnUse"
       gradientTransform="matrix(2.9176471,0,0,0.988234,-150.71765,48.92941)" />
    <linearGradient
       id="linearGradient3707-319-631">
      <stop
         id="stop4637"
         style="stop-color:#254b6d;stop-opacity:1"
         offset="0" />
      <stop
         id="stop4639"
         style="stop-color:#415b73;stop-opacity:1"
         offset="0.5" />
      <stop
         id="stop4641"
         style="stop-color:#6195b5;stop-opacity:1"
         offset="1" />
    </linearGradient>
    <linearGradient
       x1="20"
       y1="43"
       x2="20"
       y2="2.6887112"
       id="linearGradient2482"
       xlink:href="#linearGradient3707-319-631"
       gradientUnits="userSpaceOnUse"
       gradientTransform="matrix(1.2815568,0,0,1.2815276,0.732995,3.7535506)" />
    <linearGradient
       id="linearGradient2867-449-88-871-390-598-476-591-434-148">
      <stop
         id="stop4627"
         style="stop-color:#51cfee;stop-opacity:1"
         offset="0" />
      <stop
         id="stop4629"
         style="stop-color:#49a3d2;stop-opacity:1"
         offset="0.26238" />
      <stop
         id="stop4631"
         style="stop-color:#3470b4;stop-opacity:1"
         offset="0.704952" />
      <stop
         id="stop4633"
         style="stop-color:#273567;stop-opacity:1"
         offset="1" />
    </linearGradient>
    <radialGradient
       cx="61.240059"
       cy="-8.7256308"
       r="9.7552834"
       fx="61.240059"
       fy="-8.7256308"
       id="radialGradient2480"
       xlink:href="#linearGradient2867-449-88-871-390-598-476-591-434-148"
       gradientUnits="userSpaceOnUse"
       gradientTransform="matrix(0,4.6075349,-4.6075326,0,-8.203654,-266.50589)" />
    <linearGradient
       id="linearGradient4873">
      <stop
         id="stop4875"
         style="stop-color:#ffffff;stop-opacity:1"
         offset="0" />
      <stop
         id="stop4877"
         style="stop-color:#ffffff;stop-opacity:0"
         offset="1" />
    </linearGradient>
    <linearGradient
       x1="63.397362"
       y1="-12.489107"
       x2="63.397362"
       y2="5.4675598"
       id="linearGradient2498"
       xlink:href="#linearGradient4873"
       gradientUnits="userSpaceOnUse"
       gradientTransform="matrix(2.8014404,0,0,2.8013767,-142.25072,43.835172)" />
  </defs>
  <g
     id="layer1">
    <path
       d="M 63,53.499998 C 63,59.298988 49.120825,63.999998 32,63.999998 C 14.879175,63.999998 1,59.298988 1,53.499998 C 1,47.701008 14.879175,42.999998 32,42.999998 C 49.120825,42.999998 63,47.701008 63,53.499998 L 63,53.499998 z"
       id="path8836"
       style="opacity:0.3;fill:url(#radialGradient2506);fill-opacity:1;fill-rule:evenodd;stroke:none;stroke-width:0.99999988;stroke-linecap:butt;stroke-linejoin:round;marker:none;marker-start:none;marker-mid:none;marker-end:none;stroke-miterlimit:4;stroke-dasharray:none;stroke-dashoffset:0;stroke-opacity:1;visibility:visible;display:inline;overflow:visible" />
    <path
       d="M 57.499999,33.999097 C 57.499999,48.082811 46.082419,59.5 32.00032,59.5 C 17.916933,59.5 6.5,48.082681 6.5,33.999097 C 6.5,19.916029 17.916933,8.5000003 32.00032,8.5000003 C 46.082419,8.5000003 57.499999,19.916029 57.499999,33.999097 L 57.499999,33.999097 z"
       id="path6495"
       style="fill:url(#radialGradient2480);fill-opacity:1;fill-rule:nonzero;stroke:url(#linearGradient2482);stroke-width:1;stroke-miterlimit:4;stroke-dasharray:none" />
    <path
       d="M 56.499998,33.999131 C 56.499998,47.530543 45.530168,58.499998 32.000309,58.499998 C 18.469211,58.499998 7.4999998,47.530419 7.4999998,33.999131 C 7.4999998,20.468344 18.469211,9.5000007 32.000309,9.5000007 C 45.530168,9.5000007 56.499998,20.468344 56.499998,33.999131 L 56.499998,33.999131 z"
       id="path8655"
       style="opacity:0.4;fill:none;fill-opacity:1;fill-rule:nonzero;stroke:url(#linearGradient2498);stroke-width:0.99999994;stroke-miterlimit:4;stroke-dasharray:none;stroke-opacity:1" />
    <path
       d="M 32.577265,9.0000006 L 29.468918,9.356336 L 26.049732,10.291718 C 26.340987,10.189456 26.636042,10.077833 26.937833,9.9799241 L 26.538187,9.2672526 L 25.206038,9.4899621 L 24.539963,10.11355 L 23.518648,10.247176 L 22.586145,10.692596 L 22.142096,10.915306 L 22.008879,11.093473 L 21.342806,11.227099 L 20.943163,12.073397 L 20.4103,11.00439 L 20.232683,11.449809 L 20.321499,12.652443 L 19.477804,13.365114 L 18.98935,14.656832 L 20.010666,14.656832 L 20.410308,13.810536 L 20.543525,13.498741 C 20.992588,13.180194 21.418301,12.825438 21.875674,12.518816 L 22.941392,12.875153 C 23.635254,13.348015 24.333992,13.828352 25.028427,14.300497 L 26.049732,13.365114 L 24.895203,12.875153 L 24.362344,11.806145 L 22.408525,11.583434 L 22.364117,11.360726 L 23.20781,11.538893 L 23.696267,11.048931 L 24.761986,10.826221 C 25.014187,10.703186 25.262277,10.614569 25.516868,10.514428 L 24.850794,11.138016 L 27.248663,12.786068 L 27.248663,13.765992 L 26.316159,14.701374 L 27.559497,17.195727 L 28.403192,16.705762 L 29.468914,15.05771 C 30.967236,14.593043 32.317618,14.052341 33.731794,13.409656 L 33.642978,14.033244 L 34.353455,14.523206 L 35.596796,13.676908 L 34.975125,12.964236 L 34.131429,13.454199 L 33.865,13.365116 C 33.926197,13.337067 33.981158,13.304546 34.042618,13.276034 L 35.285967,10.069007 L 32.577265,9.0000006 z M 20.4103,13.810536 L 21.431614,14.523206 L 22.27531,14.523206 L 22.27531,13.676908 L 21.253997,13.231488 L 20.4103,13.810536 L 20.4103,13.810536 z M 43.98934,13.231488 L 42.168738,13.676908 L 41.014211,14.434122 L 41.014211,15.102251 L 39.193607,16.260342 L 39.548847,17.997483 L 40.614566,17.240266 L 41.280639,17.997483 L 42.035527,18.442903 L 42.52398,17.151183 L 42.25755,16.39397 L 42.52398,15.859464 L 43.5897,14.879541 L 44.078154,14.879541 L 43.5897,15.948553 L 43.5897,16.928473 C 44.028958,16.808538 44.472331,16.761827 44.921849,16.705762 L 43.678509,17.596606 L 43.589694,18.131106 L 42.168734,19.333743 L 40.703369,18.977404 L 40.703369,18.131106 L 40.037295,18.576527 L 40.348131,19.333743 L 39.28241,19.333743 L 38.705146,20.313666 L 37.994666,21.115421 L 36.706922,21.382672 L 37.461807,22.139886 L 37.639427,22.897099 L 36.706922,22.897099 L 35.463583,23.56523 L 35.463583,25.525075 L 36.040847,25.525075 L 36.573706,26.104122 L 37.772641,25.525075 L 38.216691,24.322442 L 39.104791,23.787939 L 39.28241,23.342518 L 40.703369,22.986183 L 41.502659,23.877021 L 42.346355,24.322442 L 41.857898,25.302368 L 42.612786,25.079655 L 43.012427,24.099731 L 42.03552,22.986183 L 42.435163,22.986183 L 43.412073,23.787939 L 43.589694,24.856947 L 44.433387,25.836871 L 44.655411,24.411528 L 45.099462,24.188817 C 45.572126,24.681011 45.944702,25.282936 46.342801,25.836871 L 47.808166,25.925963 L 48.651859,26.460466 L 48.252215,27.039513 L 47.40852,27.796727 L 46.16518,27.796727 L 44.522197,27.262224 L 43.678502,27.351315 L 43.056833,28.06399 L 41.280633,26.282309 L 40.037295,25.925973 L 38.216691,26.148684 L 36.618112,26.594102 C 35.706187,27.631133 34.772538,28.679584 33.909407,29.756585 L 32.888094,32.250934 L 33.376549,32.785439 L 32.488448,34.077156 L 33.465358,36.348797 C 34.278252,37.271187 35.095921,38.187352 35.907632,39.110399 L 37.106566,38.085933 L 37.595021,38.709523 L 38.882767,37.863226 L 39.326816,38.353187 L 40.614559,38.353187 L 41.369445,39.199484 L 40.925395,40.713912 L 41.813493,41.738378 L 41.769086,43.520056 L 42.435159,44.811774 L 41.946705,45.925323 C 41.899087,46.723972 41.85789,47.487272 41.85789,48.286048 C 42.249676,49.368194 42.642469,50.447683 43.01242,51.537612 L 43.27885,53.274748 L 43.27885,54.165589 L 43.989327,54.165589 L 45.010643,53.49746 L 46.253984,53.49746 L 48.118992,51.403987 L 47.896967,50.691313 L 49.140308,49.577765 L 48.207801,48.5533 L 49.317925,47.662462 L 50.383646,46.994329 L 50.8721,46.459826 L 50.561266,45.257193 C 50.561266,44.244702 50.561268,43.240965 50.561266,42.228337 L 51.404962,40.357576 L 52.470679,39.199484 L 53.625209,36.348797 L 53.625209,35.591584 C 53.050678,35.66418 52.499988,35.729634 51.93782,35.769753 L 53.092349,34.61166 L 54.690927,33.542654 L 55.534623,32.562727 L 55.534623,31.493721 C 55.343265,31.131735 55.15002,30.742161 54.957354,30.380175 L 54.202469,31.271013 L 53.625205,30.602885 L 52.781509,29.934754 L 52.781509,28.553952 L 53.75842,29.667503 L 54.868546,29.533877 C 55.369355,29.989926 55.850242,30.395438 56.289503,30.914678 L 57,30.112899 C 57,29.249744 56.030825,24.988594 53.936058,21.382672 C 51.841289,17.777939 48.163409,14.478665 48.163412,14.478665 L 47.89698,14.968626 L 46.920071,16.037635 L 45.676732,14.745916 L 46.920071,14.745916 L 47.497337,14.122328 L 45.188277,13.676908 L 43.98934,13.231488 z M 17.301951,13.810536 L 16.857902,14.968626 C 16.857902,14.968626 16.08048,15.097371 15.880994,15.146795 C 13.333358,17.501679 8.1959014,22.609524 7,32.206374 C 7.0473514,32.428878 7.843694,33.720799 7.843694,33.720799 L 9.7975125,34.878893 L 11.751333,35.413395 L 12.595027,36.437861 L 13.882771,37.417784 L 14.637655,37.284158 L 15.170515,37.551412 L 15.170515,37.729577 L 14.460035,39.733969 L 13.882771,40.580268 L 14.060391,40.981143 L 13.616341,42.584656 L 15.259325,45.61351 L 16.946715,47.083396 L 17.701597,48.152402 L 17.612782,50.379501 L 18.145642,51.626675 L 17.612782,54.031945 C 17.612782,54.031945 17.541676,54.012168 17.612782,54.254656 C 17.684518,54.497259 20.58111,56.129288 20.765533,55.991792 C 20.949323,55.851732 21.120773,55.724539 21.120773,55.724539 L 20.943155,55.190035 L 21.69804,54.477365 L 21.964468,53.72015 L 23.163404,53.31927 L 24.095907,51.003089 L 23.829477,50.379501 L 24.451146,49.399578 L 25.872106,49.087784 L 26.582586,47.395189 L 26.404965,45.301715 L 27.515091,43.742748 L 27.692709,42.139237 C 26.169565,41.381586 24.675188,40.603108 23.163404,39.823052 L 22.408518,38.353168 L 21.031965,38.041374 L 20.27708,36.036983 L 18.456477,36.259693 L 16.857896,35.101603 L 15.170508,36.571488 L 15.170508,36.794199 C 14.665099,36.647866 14.066369,36.626334 13.616343,36.348779 L 13.261104,35.27977 L 13.261104,34.121678 L 12.106575,34.255304 C 12.199485,33.517628 12.323853,32.765754 12.417408,32.028206 L 11.751333,32.028206 L 11.085258,32.874503 L 10.463587,33.186296 L 9.5310839,32.651794 L 9.4422734,31.493701 L 9.6198935,30.246526 L 10.996448,29.177519 L 12.106572,29.177519 L 12.328597,28.553931 L 13.705152,28.865723 L 14.726466,30.157442 L 14.904086,28.019425 L 16.680284,26.549542 L 17.301953,24.990573 L 18.634104,24.45607 L 19.344583,23.38706 L 21.031972,23.075266 L 21.875667,21.828091 C 21.040579,21.828091 20.179671,21.828091 19.344583,21.828091 L 20.943163,21.070877 L 22.053286,21.070877 L 23.474246,20.580916 L 23.740676,21.961717 L 24.362346,20.981793 L 23.651864,20.491832 L 23.829485,19.912787 L 23.252221,19.378281 L 22.63055,19.200114 L 22.808171,18.531985 L 22.319715,17.596606 L 21.209591,18.042023 L 21.387212,17.195727 L 20.099467,16.438511 L 19.078154,18.220191 L 19.16697,18.843778 L 18.145657,19.289199 L 17.523987,20.67 L 17.213152,19.378281 L 15.481358,18.665611 L 15.170523,17.685688 L 17.523987,16.349428 L 18.5453,15.369505 L 18.634116,14.211411 L 18.056851,13.899618 L 17.301966,13.810537 L 17.301951,13.810536 z M 36.351687,15.948553 L 36.351687,16.66122 L 36.751332,17.106641 L 36.751332,18.175649 L 36.529306,19.600992 L 37.683836,19.378281 L 38.527532,18.531985 L 37.772647,17.819312 C 37.527845,17.16541 37.279751,16.575731 36.973358,15.948553 L 36.351687,15.948553 z M 35.374776,17.373892 L 34.664299,17.596606 L 34.841917,18.888321 L 35.774421,18.398356 L 35.374776,17.373892 L 35.374776,17.373892 z M 48.385435,29.088434 L 49.451153,30.335609 L 50.738898,33.097213 L 51.538187,33.98805 L 51.138544,34.923435 L 51.849024,35.769734 C 51.522981,35.791381 51.207229,35.814279 50.872114,35.814279 C 50.263335,34.531087 49.781532,33.237009 49.31794,31.894585 L 48.51865,31.003746 L 48.074599,29.400234 L 48.385435,29.088439 L 48.385435,29.088434 z"
       id="path6534"
       style="opacity:0.4;fill:#000000;fill-opacity:1;fill-rule:nonzero;stroke:none" />
  </g>
</svg>
